svgs/sharp-thin/message-captions.svg

<svg xmlns="http://www.w3.org/2000/svg" viewBox="0 0 512 512"><!--! Font Awesome Pro 6.6.0 by @fontawesome - https://fontawesome.com License - https://fontawesome.com/license (Commercial License) Copyright 2024 Fonticons, Inc. --><path d="M160 416l-16 0L16 416 0 416l0-16L0 16 0 0 16 0 496 0l16 0 0 16 0 384 0 16-16 0-192 0L176 501.3 160 512l0-19.2 0-60.8 0-16zm0-16l16 0 0 16 0 66.1 119.1-79.4 4-2.7 4.8 0 192 0 0-384L16 16l0 384 144 0zM72 240l240 0 8 0 0 16-8 0L72 256l-8 0 0-16 8 0zm304 0l64 0 8 0 0 16-8 0-64 0-8 0 0-16 8 0zM72 304l96 0 8 0 0 16-8 0-96 0-8 0 0-16 8 0zm160 0l208 0 8 0 0 16-8 0-208 0-8 0 0-16 8 0z"/></svg>

<svg xmlns="http://www.w3.org/2000/svg" viewBox="0 0 512 512"><!--! Font Awesome Pro 6.5.2 by @fontawesome - https://fontawesome.com License - https://fontawesome.com/license (Commercial License) Copyright 2024 Fonticons, Inc. --><path d="M160 416H144 16 0V400 16 0H16 496h16V16 400v16H496 304L176 501.3 160 512V492.8 432 416zm0-16h16v16 66.1l119.1-79.4 4-2.7H304 496V16H16V400H160zM72 240H312h8v16h-8H72 64V240h8zm304 0h64 8v16h-8H376h-8V240h8zM72 304h96 8v16h-8H72 64V304h8zm160 0H440h8v16h-8H232h-8V304h8z"/></svg>
